Yaru++/actions/16/draw-connector.svg

<svg viewBox="0 0 24 24" xmlns="http://www.w3.org/2000/svg">
  <path d="m17 6.3125-10.6875 10.6875h.6875v.6875l10.6875-10.6875h-.6875z" fill="#808080"/>
  <path d="m16 4v4h4v-4zm1 1h2v2h-2zm-13 11v4h4v-4zm1 1h2v2h-2z" fill="#0084ff"/>
</svg>

<svg xmlns="http://www.w3.org/2000/svg" viewBox="0 0 24 24">
 <defs>
  <style id="current-color-scheme" type="text/css">
   .ColorScheme-Text { color:#808080; } .ColorScheme-Highlight { color:#1d99f3; }
  </style>
 </defs>
 <path style="fill:currentColor" class="ColorScheme-Text" d="M 17 6.3125 L 6.3125 17 L 7 17 L 7 17.6875 L 17.6875 7 L 17 7 L 17 6.3125 z"/>
 <path style="fill:currentColor" class="ColorScheme-Highlight" d="M 16 4 L 16 8 L 20 8 L 20 4 L 16 4 z M 17 5 L 19 5 L 19 7 L 17 7 L 17 5 z M 4 16 L 4 20 L 8 20 L 8 16 L 4 16 z M 5 17 L 7 17 L 7 19 L 5 19 L 5 17 z"/>
</svg>
